VARIANT
CUT[Siehgst an doch do koemmt er, kleena Schrittla nimmt er]
REG[Europa, Mitteleuropa, Deutschland, Ober - Franken, Autenhausen]
KEY[V0003  16  C 2/4]
MEL[-5_.-4-3_-4_  -5__1__
    -5_.-4-3_-4_  -5__1__
    2_.22_1_  -7_-6_-5__
    -5_-5_-6_-7-7  1_1_1__ //] >>
FCT[Geselligkeits - Lied, Scherz]
